html/app/assets/img/ui/calendar.svg

<svg fill="none" height="12" viewBox="0 0 11 12" width="11" xmlns="http://www.w3.org/2000/svg"><path clip-rule="evenodd" d="m3.3 0c.30376 0 .55.244208.55.545455v.545455h3.3v-.545455c0-.301247.24624-.545455.55-.545455s.55.244208.55.545455v.546345c.26151.00178.49006.00714.6885.02321.30916.02505.59334.07882.86028.2137.41392.20918.75052.54296.96142.95349.136.26473.1902.54657.2155.85317.0243.29519.0243.65757.0243 1.09664v4.6269c0 .43906 0 .80144-.0243 1.09663-.0253.30656-.0795.58846-.2155.85316-.2109.4105-.5475.7443-.96142.9535-.26694.1349-.55112.1886-.86028.2137-.29765.0241-.66304.0241-1.10577.0241h-4.66546c-.44273 0-.80812 0-1.10577-.0241-.30916-.0251-.59334-.0788-.86028-.2137-.413955-.2092-.750513-.543-.961434-.9535-.13601-.2647-.1902202-.5466-.215479-.85316-.02431955-.2952-.02431378-.65757-.02430676-1.09665v-4.62687c-.00000702-.43908-.00001279-.80145.02430676-1.09665.0252588-.3066.079469-.58844.215479-.85317.210922-.41053.547479-.74431.961434-.95349.26694-.13488.55112-.18865.86028-.2137.19844-.01607.42699-.02143.6885-.02321v-.546345c0-.301247.24624-.545455.55-.545455zm-.55 2.18278c-.24504.00171-.43745.00644-.59893.01952-.24113.01954-.36444.05495-.45046.09842-.20698.10459-.37526.27148-.48072.47675-.04383.0853-.07954.2076-.09924.44673-.02022.24551-.02065.56312-.02065 1.03035v.10909h8.8v-.10909c0-.46723-.00043-.78484-.02065-1.03035-.01971-.23913-.05541-.36143-.09924-.44673-.10546-.20527-.27374-.37216-.48072-.47675-.08602-.04347-.20933-.07888-.45046-.09842-.16148-.01308-.35389-.01781-.59893-.01952v.54449c0 .30125-.24624.54546-.55.54546s-.55-.24421-.55-.54546v-.54545h-3.3v.54545c0 .30125-.24624.54546-.55.54546s-.55-.24421-.55-.54546zm7.15 3.27177h-8.8v3.38181c0 .46723.00043.78484.02065 1.03035.0197.23909.05541.36139.09924.44669.10546.2053.27374.3722.48072.4768.08602.0435.20933.0789.45046.0984.24755.0201.56781.0205 1.03893.0205h4.62c.47112 0 .79138-.0004 1.03893-.0205.24113-.0195.36444-.0549.45046-.0984.20698-.1046.37526-.2715.48072-.4768.04383-.0853.07953-.2076.09924-.44669.02022-.24551.02065-.56312.02065-1.03035z" fill="#222" fill-rule="evenodd"/></svg>

<svg width="11" height="12" viewBox="0 0 11 12" fill="none" xmlns="http://www.w3.org/2000/svg">
<path fill-rule="evenodd" clip-rule="evenodd" d="M3.3 0C3.60376 0 3.85 0.244208 3.85 0.545455V1.09091H7.15V0.545455C7.15 0.244208 7.39624 0 7.7 0C8.00376 0 8.25 0.244208 8.25 0.545455V1.0918C8.51151 1.09358 8.74006 1.09894 8.9385 1.11501C9.24766 1.14006 9.53184 1.19383 9.79878 1.32871C10.2127 1.53789 10.5493 1.87167 10.7602 2.2822C10.8962 2.54693 10.9504 2.82877 10.9757 3.13537C11 3.43056 11 3.79294 11 4.23201V8.85891C11 9.29797 11 9.66035 10.9757 9.95554C10.9504 10.2621 10.8962 10.544 10.7602 10.8087C10.5493 11.2192 10.2127 11.553 9.79878 11.7622C9.53184 11.8971 9.24766 11.9508 8.9385 11.9759C8.64085 12 8.27546 12 7.83273 12H3.16727C2.72454 12 2.35915 12 2.0615 11.9759C1.75234 11.9508 1.46816 11.8971 1.20122 11.7622C0.787265 11.553 0.450707 11.2192 0.239786 10.8087C0.103776 10.544 0.0495658 10.2621 0.024307 9.95554C-1.25475e-05 9.66034 -6.77826e-06 9.29797 2.3721e-07 8.85889V4.23202C-6.77826e-06 3.79294 -1.25475e-05 3.43057 0.024307 3.13537C0.0495658 2.82877 0.103776 2.54693 0.239786 2.2822C0.450708 1.87167 0.787265 1.53789 1.20122 1.32871C1.46816 1.19383 1.75234 1.14006 2.0615 1.11501C2.25994 1.09894 2.48849 1.09358 2.75 1.0918V0.545455C2.75 0.244208 2.99624 0 3.3 0ZM2.75 2.18278C2.50496 2.18449 2.31255 2.18922 2.15107 2.2023C1.90994 2.22184 1.78663 2.25725 1.70061 2.30072C1.49363 2.40531 1.32535 2.5722 1.21989 2.77747C1.17606 2.86277 1.14035 2.98507 1.12065 3.2242C1.10043 3.46971 1.1 3.78732 1.1 4.25455V4.36364H9.9V4.25455C9.9 3.78732 9.89957 3.46971 9.87935 3.2242C9.85964 2.98507 9.82394 2.86277 9.78011 2.77747C9.67465 2.5722 9.50637 2.40531 9.29939 2.30072C9.21337 2.25725 9.09006 2.22184 8.84893 2.2023C8.68745 2.18922 8.49504 2.18449 8.25 2.18278V2.72727C8.25 3.02852 8.00376 3.27273 7.7 3.27273C7.39624 3.27273 7.15 3.02852 7.15 2.72727V2.18182H3.85V2.72727C3.85 3.02852 3.60376 3.27273 3.3 3.27273C2.99624 3.27273 2.75 3.02852 2.75 2.72727V2.18278ZM9.9 5.45455H1.1V8.83636C1.1 9.30359 1.10043 9.6212 1.12065 9.86671C1.14035 10.1058 1.17606 10.2281 1.21989 10.3134C1.32535 10.5187 1.49363 10.6856 1.70061 10.7902C1.78663 10.8337 1.90994 10.8691 2.15107 10.8886C2.39862 10.9087 2.71888 10.9091 3.19 10.9091H7.81C8.28112 10.9091 8.60138 10.9087 8.84893 10.8886C9.09006 10.8691 9.21337 10.8337 9.29939 10.7902C9.50637 10.6856 9.67465 10.5187 9.78011 10.3134C9.82394 10.2281 9.85964 10.1058 9.87935 9.86671C9.89957 9.6212 9.9 9.30359 9.9 8.83636V5.45455Z" fill="#222222"/>
</svg>
